X: 16602
T: Handful Of Beads
R: reel
M: 4/4
K: Bminor
|:B,2F2B2 AB|dGGF G2 FG|ADDD DEF/E/D|EAFD E2DC|
B,2F2B2 AB|dGGF G2 FG|ADDD DEF/E/D|1 EAFD E2DC:|2 E2z2 G4||
|:fBBA B2AB|dGGF G2ga|fAA2d2cd|ecAF g2g2|
fBBA B2AB|dGGF G2FG|ADDD DEF/E/D|1 EFGA Bdeg:|2 E2 z2 z4||

